svg/material-icons/cabin/materialicons/20px.svg

<svg xmlns="http://www.w3.org/2000/svg" width="20" height="20" viewBox="0 0 20 20"><path d="M5.5 4.5H4c0-.9.6-2.25 2.25-2.25.34-.01.75-.15.75-.75h1.5c0 .9-.6 2.25-2.25 2.25-.34.01-.75.15-.75.75zm12.75 5.3-.91 1.19L16 9.97V17H4V9.97l-1.34 1.02-.91-1.19L4 8.08V5.5h1.5v1.44L10 3.5l8.25 6.3zM10 5.39 8.54 6.5h2.91L10 5.39zM5.5 8.82v.68h9v-.68L13.42 8H6.58l-1.08.82zm0 2.18v1.5h9V11h-9zm9 4.5V14h-9v1.5h9z"/></svg>

<svg xmlns="http://www.w3.org/2000/svg" enable-background="new 0 0 20 20" height="20" viewBox="0 0 20 20" width="20"><rect fill="none" height="20" width="20"/><path d="M5.5,4.5H4c0-0.9,0.6-2.25,2.25-2.25C6.59,2.24,7,2.1,7,1.5h1.5c0,0.9-0.6,2.25-2.25,2.25C5.91,3.76,5.5,3.9,5.5,4.5z M18.25,9.8l-0.91,1.19L16,9.97V17H4V9.97l-1.34,1.02L1.75,9.8L4,8.08V5.5h1.5v1.44L10,3.5L18.25,9.8z M10,5.39L8.54,6.5h2.91 L10,5.39z M5.5,8.82V9.5h9V8.82L13.42,8H6.58L5.5,8.82z M5.5,11v1.5h9V11H5.5z M14.5,15.5V14h-9v1.5H14.5z"/></svg>
